core/test/fixtures/xmp/basic-pv2.xmp
<?xpacket begin="﻿" id="W5M0MpChcGiynhqT"?>
<x:xmpmeta xmlns:x="adobe:ns:meta/">
 <rdf:RDF xmlns:rdf="http://www.w3.org/1999/02/22-rdf-syntax-ns#">
  <rdf:Description rdf:about=""
   xmlns:dc="http://purl.org/dc/elements/1.1/"
   xmlns:crs="http://ns.adobe.com/camera-raw-settings/1.0/"
   dc:description="A balanced everyday look: a bit of contrast, warm-neutral WB."
   dc:creator="phos-test"
   crs:ProcessVersion="11.0"
   crs:WhiteBalance="Daylight"
   crs:Temp="5450"
   crs:Tint="12"
   crs:Exposure2012="0"
   crs:Contrast2012="30"
   crs:Highlights2012="-20"
   crs:Shadows2012="15"
   crs:Whites2012="10"
   crs:Blacks2012="-5"
   crs:Vibrance="8"
   crs:Saturation="-12"
   crs:Clarity2012="20"
   crs:SharpenDetail="40"
   crs:SharpenRadius="1.0"
   crs:SharpenEdgeMasking="50">
  </rdf:Description>
  <rdf:Description rdf:about=""
   xmlns:crs="http://ns.adobe.com/camera-raw-settings/1.0/"
   crs:Name="Everyday Balanced"
   crs:HasSettings="True">
  </rdf:Description>
 </rdf:RDF>
</x:xmpmeta>
<?xpacket end="w"?>